Vector-Maia/symbolic/status/bluetooth-hardware-disabled-symbolic.svg

<?xml version="1.0" encoding="UTF-8" standalone="no"?>
<svg
   width="16"
   height="16"
   version="1.1"
   id="svg6"
   sodipodi:docname="bluetooth-hardware-disabled-symbolic.svg"
   inkscape:version="1.1.1 (3bf5ae0d25, 2021-09-20, custom)"
   xmlns:inkscape="http://www.inkscape.org/namespaces/inkscape"
   xmlns:sodipodi="http://sodipodi.sourceforge.net/DTD/sodipodi-0.dtd"
   xmlns="http://www.w3.org/2000/svg"
   xmlns:svg="http://www.w3.org/2000/svg">
  <defs
     id="defs10" />
  <sodipodi:namedview
     id="namedview8"
     pagecolor="#ffffff"
     bordercolor="#666666"
     borderopacity="1.0"
     inkscape:pageshadow="2"
     inkscape:pageopacity="0.0"
     inkscape:pagecheckerboard="0"
     showgrid="false"
     inkscape:zoom="45.4375"
     inkscape:cx="7.9889959"
     inkscape:cy="7.9889959"
     inkscape:window-width="1920"
     inkscape:window-height="1002"
     inkscape:window-x="0"
     inkscape:window-y="0"
     inkscape:window-maximized="1"
     inkscape:current-layer="svg6" />
  <path
     d="M 7,0 V 5 H 9 V 3.8281 L 10.1719,5 H 13 L 8,0 Z M 7,5 5.00005,2.99995 3.58595,4.41405 4.1718,5 H 6.9999 Z M 6.17188,7 7,7.82812 v 0.34375 l -3.41405,3.41408 1.4141,1.4141 L 7,11.00007 v 5 h 1 l 5,-5 -3,-3 1,-1 H 6.1719 Z m 2.8281,2.8281 1.1719,1.1719 -1.1719,1.1719 z"
     fill="#555555"
     opacity="0.35"
     stroke-linecap="square"
     stroke-width="4"
     style="paint-order:fill markers stroke"
     id="path2"
     sodipodi:nodetypes="ccccccccccccccccccccccccccccccc" />
  <path
     d="m1 7.0001h15v2h-15z"
     fill="#555555"
     stroke-width=".79057"
     id="path4" />
</svg>

<svg width="16" height="16" version="1.1" xmlns="http://www.w3.org/2000/svg">
 <path d="m7 0v5h2v-1.1719l1.1719 1.1719h2.8281l-5-5h-1zm0 5-3-3-1.4141 1.4141 1.5859 1.5859h2.8281zm-0.82812 2 0.82812 0.82812v0.34375l-4.4141 4.4141 1.4141 1.4141 3-3v5h1l5-5-3-3 1-1h-4.8281zm2.8281 2.8281 1.1719 1.1719-1.1719 1.1719v-2.3438z" fill="#555555" opacity=".35" stroke-linecap="square" stroke-width="4" style="paint-order:fill markers stroke"/>
 <path d="m1 7.0001h15v2h-15z" fill="#555555" stroke-width=".79057"/>
</svg>
